X: 22
T: Biddy Martin's
M: 2/4
L: 1/8
R: polka
K: Dmaj
|:"D"f/e/d "Em"Be|"A"ef "D"ed|"D"f/e/d "Em"Be|"A"eA "D"d2|
"D"f/e/d "Em"Be|"A"ef "D"ed|"D"f/e/d "Em"Be|"A"eA "D"d2:|
|:"D"f/a/f f/a/f|af "A"ed|"D"f/a/f f/a/f|af "A"e2|
"D"f/a/f f/a/f|af "A"ed|"D"f/e/d "Em"Be|"A"eA "D"d2:|
